X:1
T:Title
%%score { ( 1 3 ) | 2 }
L:1/8
Q:1/4=100
M:6/8
K:E
V:1 treble nm="Grand Piano"
V:3 treble 
V:2 bass 
V:1
 G=G^G B2 E | E2 D D3 | F^EF [B,FA]2 [Dc] | c3 B2 G | G=G^G B2 E | E2 D D2 [DF] | FG^A FGA | %7
w: D.~B.~Towner * * * *|||||||
[M:3/8] [Ec]3 | [DB]3 | [FB]3 |[M:9/8] .B6 z3 | B3 G3 EFG | [DB]3 [FA]3 [EG]3 | [DF]6 [DB]3 | %14
w: |||||||
 .B6 z3 | B3 G3 [B,E]2 [B,DF] |[M:6/8] [B,EG] [EGB]2- [EGB]2 [EAc] | %17
w: |||
 [B,EG] [B,EG]2- [B,EG]2 [A,DF] | [G,E]6 |] %19
w: ||
V:2
 [E,B,E][E,^A,E][E,B,E] [E,G,E]2 [G,B,] | [F,A,B,]2 [D,F,B,] [B,,F,B,]3 | %2
 [A,B,D][G,B,=D][F,B,^D] D,C,[B,,A,] | [E,A,E]3 [E,G,E]2 [E,B,E] | %4
 [E,B,E][E,^A,E][E,B,E] [E,G,E]2 [G,B,] | [F,A,B,]2 [D,F,B,] [B,,F,B,]2 [B,,B,] | %6
 [F,^A,E][F,B,E][F,CE] [F,A,E][F,A,E][F,E] |[M:3/8] [B,,F,]3 | [B,,F,]3 | [B,,A,]3 | %10
[M:9/8] [E,G,E][E,A,][E,B,] [E,D][E,E][E,C] [E,B,][E,B,][E,A,E] | %11
 [E,G,E]3 [E,B,E]3 [E,G,][E,A,E][E,B,E] | [B,,B,]6 [B,,B,]3 | [B,,B,]6 [B,,A,]3 | %14
 [E,G,E][E,A,][E,B,] [E,E][E,E][E,C] [E,B,][E,B,][E,A,E] | [E,G,E]3 [E,B,E]3 G,,2 B,, | %16
[M:6/8] E, E,2- E,2 A,, | B,, B,,2- B,,2 B,, | E,6 |] %19
V:3
 x6 | x6 | x6 | x6 | x6 | x6 | x6 |[M:3/8] x3 | x3 | x3 |[M:9/8] z FG GG[FA] [GB][Ge]c | x9 | x9 | %13
 x9 | z FG GG[FA] [GB][Ge]c | x9 |[M:6/8] x6 | x6 | x6 |] %19

